assets/collections/ps2/logo_mono.svg

<svg version="1.0" viewBox="0 0 800 238.15" xml:space="preserve" xmlns="http://www.w3.org/2000/svg"><path d="M0 0v9.149h225.36v50.725H0v69.846h9.143V69.021H233.68V0zm517.25 0v9.149h225.37v50.725H517.25v69.846h234.51v-9.14H527.24V69.021h224.52V0zM353.43 0v120.58H233.68v9.14h129.73V9.149h118.91V0zm422.45 116.42h-4.16v-1.66h11.65v1.66h-4.99v13.3h-2.5zm12.48-1.66 4.15 12.47 4.17-12.47H800v14.96h-1.67v-12.46l-4.15 12.46h-2.5l-4.16-12.46v12.46h-2.5v-14.96z" fill="#fff" fill-rule="evenodd"/><g fill="#fff"><path d="M189.72 175.41v45.711h7.136V179.79h6.605s4.798 0 6.442 2.146c1.396 1.823 1.651 5.13 1.651 7.363 0 2.39-.151 6.083-.953 7.435-1.217 2.066-3.215 2.481-5.042 2.481h-4.36v4.056h6.27s5.657.236 8.09-2.237c2.983-3.032 3.741-7.108 3.741-12.564 0-4.958-1.799-9.96-5.476-11.66-3.044-1.4-8.532-1.4-8.532-1.4H189.72m35.19 45.71h7.135v-45.711h-7.135v45.711zm45.1-35.05 13.055 34.215-7.495 18.356h5.923l21.583-52.571h-6.613l-9.401 25.623-8.747-25.623h-8.305m38.44 34.78v-4.32s7.547.295 9.118.295c3.482 0 5.221-.742 6.53-2.146.774-.841 1.471-4.57 1.471-5.899 0-1.324-.255-4.188-.773-5.36-.535-1.15-1.751-2.222-3.574-2.378-1.3-.112-3.31-.375-5.66-.483-3.295-.155-5.473-1.874-6.522-3.11-1.04-1.237-2.433-3.1-2.433-8.8 0-5.708 1.476-8.907 2.956-10.39 1.48-1.493 3.645-2.147 5.309-2.442 1.914-.327 5.041-.347 5.041-.347l9.988.291v4.32s-7.283-.291-8.85-.291c-3.483 0-4.528.746-5.832 2.146-.77.833-1.372 3.139-1.372 4.46 0 1.327.155 4.008.678 5.169.518 1.148 1.739 2.225 3.566 2.389 1.296.1 3.31.363 5.656.47 3.31.156 5.484 1.871 6.521 3.112 1.05 1.24 2.445 3.853 2.445 9.549 0 5.707-1.488 9.784-2.96 11.272-1.483 1.483-3.645 2.145-5.308 2.433-1.919.33-5.046.355-5.046.355l-10.949-.295m38.93-41.06h-7.132v33.557s.172 3.063.347 4.14c.176 1.077 1.743 3.634 5.832 3.634l7.39-.144v-4.303s-2.001.143-3.21.143c-1.225 0-2.708-.08-2.96-2.15-.267-2.066-.267-4.535-.267-4.535v-19.76h8.057v-4.3h-8.057v-6.282m68.86 41.33h7.132v-35.047h-7.132v35.047zm0-39.35h7.132v-6.363h-7.132v6.363zm29.68 4c4.854 0 8.62 1.085 10.642 2.72 2.042 1.64 4.551 5.098 4.551 15.105 0 10.008-2.509 13.462-4.551 15.105-2.022 1.636-5.788 2.729-10.642 2.729-4.866 0-8.616-1.093-10.654-2.729-2.038-1.643-4.535-5.097-4.535-15.105s2.497-13.466 4.535-15.105c2.038-1.635 5.788-2.72 10.654-2.72zm-4.89 6.721c-.981 1.209-2.178 3.75-2.178 11.105 0 7.351 1.197 9.896 2.178 11.101.977 1.197 2.78 2.006 5.113 2.006 2.338 0 4.133-.81 5.122-2.006.977-1.205 2.174-3.75 2.174-11.101 0-7.355-1.197-9.896-2.174-11.105-.99-1.2-2.784-2.002-5.122-2.002-2.333 0-4.136.801-5.113 2.002m34.86-1.501 6.996-.295c1.831 0 3.985.494 5.03 1.819.973 1.248 1.587 2.736 1.587 5.133v23.43h7.144v-24.02c0-4.543-1.4-7.184-3.498-8.843-2.991-2.373-8.352-2.146-8.352-2.146l-15.983.287v34.722h7.076V190.99m-73.86-11.2h-7.136v33.557s.168 3.063.34 4.14c.179 1.077 1.734 3.634 5.839 3.634l7.39-.144v-4.303s-2.005.143-3.218.143-2.7-.08-2.96-2.15c-.255-2.066-.255-4.535-.255-4.535v-19.76h8.037v-4.3h-8.037v-6.282m-142.91 17.86c0-2.397-.61-3.885-1.591-5.133-1.045-1.325-3.191-1.82-5.026-1.82l-9.41.296v-4.635l11.324-.287s5.361-.228 8.357 2.146c2.09 1.659 3.478 4.3 3.478 8.843v23.685l-13.673.295s-6.19.022-9.31-1.24c-3.04-1.237-4.698-4.632-4.698-9.342 0-4.547 1.392-7.188 3.482-8.847 2.995-2.377 8.352-2.142 8.352-2.142h4.368v4.036h-2.45c-1.834 0-3.721.34-4.77 1.664-.977 1.236-1.5 2.31-1.5 4.706 0 3.148.61 4.552 2.09 5.62 1.309.954 3.65 1.161 6.263 1.161l4.714-.287V197.65m120.31 0c0-2.397-.598-3.885-1.58-5.133-1.057-1.325-3.202-1.82-5.025-1.82l-9.406.296v-4.635l11.316-.287s5.357-.228 8.349 2.146c2.09 1.659 3.486 4.3 3.486 8.843v23.685l-13.673.295s-6.199.022-9.31-1.24c-3.043-1.237-4.706-4.632-4.706-9.342 0-4.547 1.404-7.188 3.482-8.847 2.991-2.377 8.36-2.142 8.36-2.142h4.364v4.036h-2.453c-1.823 0-3.722.34-4.759 1.664-.981 1.236-1.508 2.31-1.508 4.706 0 3.148.615 4.552 2.09 5.62 1.305.954 3.658 1.161 6.27 1.161l4.703-.287V197.65m130.15 23.75a6.953 6.953 0 0 0 6.968-6.964 6.94 6.94 0 0 0-2.038-4.93 6.936 6.936 0 0 0-4.93-2.034c-3.825 0-6.964 3.123-6.964 6.964 0 1.859.718 3.61 2.046 4.93a6.946 6.946 0 0 0 4.918 2.034zm-5.796-6.964c0-1.548.61-3.004 1.7-4.097a5.778 5.778 0 0 1 4.096-1.703 5.77 5.77 0 0 1 4.1 1.703 5.777 5.777 0 0 1 1.7 4.097c0 3.195-2.597 5.8-5.8 5.8a5.79 5.79 0 0 1-4.096-1.7 5.786 5.786 0 0 1-1.7-4.1"/><path d="M513.01 217.68c-.104-.04-.183-.16-.227-.339a2.87 2.87 0 0 1-.068-.586l-.032-1.002c-.016-.47-.116-.805-.283-1.029-.108-.151-.272-.27-.46-.383.232-.151.44-.335.587-.566.196-.311.3-.706.3-1.185 0-.917-.388-1.563-1.142-1.902-.398-.18-.881-.26-1.471-.26h-3.602v7.754h1.34v-3.179h2.118c.383 0 .67.04.834.112.275.136.423.41.438.83l.06 1.24c.016.303.032.495.056.606.036.12.056.216.1.296l.055.095h1.496v-.454l-.1-.048zm-1.552-4.994c0 .435-.111.722-.327.882-.247.163-.59.255-1.02.255h-2.159v-2.194h2.29c.307 0 .562.044.746.132.319.16.47.47.47.925m49.182-31.376c.096 5.265-.163 8.041-1.93 10.69-1.564 2.313-4.651 4.44-11.48 4.44l-8.473-.264c-1.332.016-4.806.415-6.441 2.182-1.412 1.5-1.504 2.64-1.66 6.681v11.815h28.806v5.808h-31.487l-1.503-.02c-2.142 0-4.248-1.451-4.248-4.355v-8.815c.143-10.32.89-11.803 3.127-14.5 1.551-1.862 5.185-3.956 9.62-4.18.87-.047 2.517-.159 4.799-.075 1.691.055 3.354.1 4.096.107 3.921.048 5.353-.674 6.426-2.082 1.225-1.588 1.87-3.45 1.87-6.51 0-2.852-.574-5.572-1.666-6.824-1.329-1.444-2.585-2.414-6.279-2.421-9.301-.026-20.179.215-20.179.215v-5.465s10.626-.462 21.467-.622c6.753-.103 10.458 1.68 12.353 4.145 1.987 2.584 2.7 5.013 2.78 10.052"/></g></svg>

<?xml version="1.0" encoding="UTF-8" standalone="no"?><!-- Generator: Gravit.io --><svg xmlns="http://www.w3.org/2000/svg" xmlns:xlink="http://www.w3.org/1999/xlink" style="isolation:isolate" viewBox="0 0 800 238.151" width="800pt" height="238.151pt"><defs><clipPath id="_clipPath_a8ImAHFB1sTzTOJc5vTBOeVzEDepSL8f"><rect width="800" height="238.151"/></clipPath></defs><g clip-path="url(#_clipPath_a8ImAHFB1sTzTOJc5vTBOeVzEDepSL8f)"><path d=" M 0 0 L 0 9.149 L 225.361 9.149 L 225.361 59.874 L 0 59.874 L 0 129.721 L 9.143 129.721 L 9.143 69.021 L 233.679 69.021 L 233.679 0 L 0 0 L 0 0 Z " fill-rule="evenodd" fill="rgb(255,255,255)"/><path d=" M 517.252 0 L 517.252 9.149 L 742.62 9.149 L 742.62 59.874 L 517.252 59.874 L 517.252 129.721 L 751.764 129.721 L 751.764 120.584 L 527.237 120.584 L 527.237 69.021 L 751.764 69.021 L 751.764 0 L 517.252 0 L 517.252 0 Z " fill-rule="evenodd" fill="rgb(255,255,255)"/><path d=" M 353.431 0 L 353.431 120.584 L 233.679 120.584 L 233.679 129.721 L 363.407 129.721 L 363.407 9.149 L 482.325 9.149 L 482.325 0 L 353.431 0 L 353.431 0 Z " fill-rule="evenodd" fill="rgb(255,255,255)"/><path d=" M 775.884 116.417 L 771.721 116.417 L 771.721 114.765 L 783.368 114.765 L 783.368 116.417 L 778.377 116.417 L 778.377 129.721 L 775.884 129.721 L 775.884 116.417 L 775.884 116.417 Z " fill-rule="evenodd" fill="rgb(255,255,255)"/><path d=" M 788.358 114.765 L 792.512 127.229 L 796.676 114.765 L 800 114.765 L 800 129.721 L 798.333 129.721 L 798.333 117.256 L 794.179 129.721 L 791.682 129.721 L 787.523 117.256 L 787.523 129.721 L 785.025 129.721 L 785.025 114.765 L 788.358 114.765 L 788.358 114.765 Z " fill-rule="evenodd" fill="rgb(255,255,255)"/><path d=" M 189.722 175.407 L 189.722 221.118 L 196.857 221.118 L 196.857 179.787 L 203.463 179.787 C 203.463 179.787 208.261 179.787 209.905 181.933 C 211.301 183.756 211.556 187.062 211.556 189.296 C 211.556 191.685 211.404 195.379 210.603 196.731 C 209.386 198.797 207.388 199.212 205.561 199.212 L 201.201 199.212 L 201.201 203.268 L 207.471 203.268 C 207.471 203.268 213.127 203.504 215.561 201.031 C 218.544 197.999 219.302 193.923 219.302 188.466 C 219.302 183.508 217.503 178.506 213.825 176.807 C 210.782 175.407 205.294 175.407 205.294 175.407 L 189.722 175.407" fill="rgb(255,255,255)"/><path d=" M 224.91 221.118 L 232.045 221.118 L 232.045 175.407 L 224.91 175.407 L 224.91 221.118 L 224.91 221.118 Z " fill="rgb(255,255,255)"/><path d=" M 270.006 186.069 L 283.061 220.284 L 275.567 238.64 L 281.49 238.64 L 303.073 186.069 L 296.459 186.069 L 287.058 211.692 L 278.311 186.069 L 270.006 186.069" fill="rgb(255,255,255)"/><path d=" M 308.446 220.846 L 308.446 216.527 C 308.446 216.527 315.992 216.822 317.564 216.822 C 321.046 216.822 322.785 216.08 324.093 214.676 C 324.867 213.834 325.565 210.105 325.565 208.777 C 325.565 207.452 325.31 204.589 324.791 203.416 C 324.257 202.267 323.04 201.194 321.217 201.039 C 319.917 200.927 317.907 200.664 315.557 200.556 C 312.263 200.4 310.085 198.681 309.036 197.445 C 307.995 196.208 306.603 194.346 306.603 188.646 C 306.603 182.938 308.079 179.739 309.558 178.255 C 311.038 176.763 313.204 176.109 314.867 175.814 C 316.782 175.487 319.909 175.467 319.909 175.467 L 329.897 175.758 L 329.897 180.078 C 329.897 180.078 322.613 179.787 321.046 179.787 C 317.564 179.787 316.519 180.533 315.214 181.933 C 314.445 182.766 313.842 185.072 313.842 186.392 C 313.842 187.72 313.998 190.401 314.52 191.561 C 315.039 192.71 316.259 193.787 318.086 193.951 C 319.383 194.05 321.397 194.314 323.742 194.421 C 327.053 194.577 329.227 196.292 330.264 197.533 C 331.313 198.773 332.709 201.386 332.709 207.081 C 332.709 212.789 331.221 216.866 329.749 218.354 C 328.265 219.837 326.104 220.499 324.44 220.787 C 322.522 221.118 319.395 221.142 319.395 221.142 L 308.446 220.846" fill="rgb(255,255,255)"/><path d=" M 347.379 179.787 L 340.248 179.787 L 340.248 213.344 C 340.248 213.344 340.419 216.407 340.595 217.484 C 340.77 218.561 342.338 221.118 346.426 221.118 L 353.817 220.974 L 353.817 216.67 C 353.817 216.67 351.815 216.814 350.606 216.814 C 349.382 216.814 347.898 216.734 347.647 214.664 C 347.379 212.598 347.379 210.129 347.379 210.129 L 347.379 190.369 L 355.436 190.369 L 355.436 186.069 L 347.379 186.069 L 347.379 179.787" fill="rgb(255,255,255)"/><path d=" M 416.24 221.118 L 423.373 221.118 L 423.373 186.071 L 416.24 186.071 L 416.24 221.118 L 416.24 221.118 Z " fill="rgb(255,255,255)"/><path d=" M 416.24 181.769 L 423.373 181.769 L 423.373 175.406 L 416.24 175.406 L 416.24 181.769 L 416.24 181.769 Z " fill="rgb(255,255,255)"/><path d=" M 445.916 185.77 C 450.771 185.77 454.536 186.855 456.558 188.49 C 458.6 190.129 461.109 193.588 461.109 203.595 C 461.109 213.603 458.6 217.057 456.558 218.701 C 454.536 220.336 450.771 221.429 445.916 221.429 C 441.05 221.429 437.301 220.336 435.262 218.701 C 433.224 217.057 430.727 213.603 430.727 203.595 C 430.727 193.588 433.224 190.129 435.262 188.49 C 437.301 186.855 441.05 185.77 445.916 185.77 Z  M 441.026 192.491 C 440.045 193.699 438.848 196.24 438.848 203.595 C 438.848 210.947 440.045 213.491 441.026 214.696 C 442.003 215.892 443.806 216.702 446.14 216.702 C 448.477 216.702 450.272 215.892 451.261 214.696 C 452.238 213.491 453.435 210.947 453.435 203.595 C 453.435 196.24 452.238 193.699 451.261 192.491 C 450.272 191.29 448.477 190.488 446.14 190.488 C 443.806 190.488 442.003 191.29 441.026 192.491 Z " fill="rgb(255,255,255)"/><path d=" M 475.887 190.991 L 482.884 190.696 C 484.714 190.696 486.868 191.19 487.913 192.515 C 488.887 193.763 489.501 195.251 489.501 197.648 L 489.501 221.078 L 496.645 221.078 L 496.645 197.058 C 496.645 192.515 495.245 189.874 493.147 188.215 C 490.155 185.842 484.794 186.069 484.794 186.069 L 468.811 186.356 L 468.811 221.078 L 475.887 221.078 L 475.887 190.991" fill="rgb(255,255,255)"/><path d=" M 402.033 179.787 L 394.897 179.787 L 394.897 213.344 C 394.897 213.344 395.064 216.407 395.236 217.484 C 395.415 218.561 396.971 221.118 401.075 221.118 L 408.466 220.974 L 408.466 216.67 C 408.466 216.67 406.46 216.814 405.247 216.814 C 404.035 216.814 402.547 216.734 402.288 214.664 C 402.033 212.598 402.033 210.129 402.033 210.129 L 402.033 190.369 L 410.07 190.369 L 410.07 186.069 L 402.033 186.069 L 402.033 179.787" fill="rgb(255,255,255)"/><path d=" M 259.121 197.648 C 259.121 195.251 258.511 193.763 257.53 192.515 C 256.485 191.19 254.339 190.696 252.504 190.696 L 243.095 190.991 L 243.095 186.356 L 254.419 186.069 C 254.419 186.069 259.779 185.841 262.775 188.215 C 264.865 189.874 266.253 192.515 266.253 197.058 L 266.253 220.743 L 252.58 221.038 C 252.58 221.038 246.389 221.06 243.27 219.797 C 240.231 218.561 238.571 215.167 238.571 210.456 C 238.571 205.909 239.963 203.268 242.054 201.609 C 245.049 199.232 250.406 199.467 250.406 199.467 L 254.773 199.467 L 254.773 203.504 L 252.324 203.504 C 250.49 203.504 248.603 203.843 247.554 205.167 C 246.577 206.403 246.054 207.476 246.054 209.874 C 246.054 213.021 246.664 214.425 248.144 215.494 C 249.453 216.447 251.794 216.654 254.407 216.654 L 259.121 216.367 L 259.121 197.648" fill="rgb(255,255,255)"/><path d=" M 379.433 197.648 C 379.433 195.251 378.834 193.763 377.853 192.515 C 376.796 191.19 374.65 190.696 372.827 190.696 L 363.422 190.991 L 363.422 186.356 L 374.738 186.069 C 374.738 186.069 380.095 185.841 383.086 188.215 C 385.176 189.874 386.572 192.515 386.572 197.058 L 386.572 220.743 L 372.899 221.038 C 372.899 221.038 366.701 221.06 363.589 219.797 C 360.546 218.561 358.883 215.167 358.883 210.456 C 358.883 205.909 360.287 203.268 362.365 201.609 C 365.356 199.232 370.725 199.467 370.725 199.467 L 375.089 199.467 L 375.089 203.504 L 372.636 203.504 C 370.813 203.504 368.914 203.843 367.877 205.167 C 366.896 206.403 366.37 207.476 366.37 209.874 C 366.37 213.021 366.984 214.425 368.46 215.494 C 369.764 216.447 372.117 216.654 374.73 216.654 L 379.433 216.367 L 379.433 197.648" fill="rgb(255,255,255)"/><path d=" M 509.576 221.405 C 511.439 221.405 513.19 220.679 514.506 219.371 C 515.818 218.05 516.544 216.299 516.544 214.441 C 516.544 212.578 515.818 210.827 514.506 209.511 C 513.19 208.198 511.439 207.476 509.576 207.476 C 505.751 207.476 502.612 210.599 502.612 214.441 C 502.612 216.299 503.33 218.05 504.658 219.371 C 505.978 220.679 507.721 221.405 509.576 221.405 Z  M 503.78 214.441 C 503.78 212.893 504.391 211.437 505.48 210.344 C 506.581 209.251 508.028 208.641 509.576 208.641 C 511.124 208.641 512.584 209.251 513.676 210.344 C 514.765 211.437 515.376 212.893 515.376 214.441 C 515.376 217.636 512.779 220.24 509.576 220.24 C 508.028 220.24 506.581 219.63 505.48 218.541 C 504.391 217.444 503.78 215.992 503.78 214.441" fill="rgb(255,255,255)"/><path d=" M 513.014 217.675 C 512.911 217.636 512.831 217.516 512.787 217.336 C 512.755 217.209 512.727 217.013 512.719 216.75 L 512.687 215.749 C 512.671 215.278 512.572 214.943 512.404 214.72 C 512.296 214.568 512.133 214.449 511.945 214.337 C 512.177 214.185 512.384 214.002 512.532 213.771 C 512.727 213.459 512.831 213.065 512.831 212.586 C 512.831 211.668 512.444 211.022 511.69 210.683 C 511.291 210.504 510.808 210.424 510.218 210.424 L 506.616 210.424 L 506.616 218.178 L 507.956 218.178 L 507.956 214.999 L 510.074 214.999 C 510.457 214.999 510.745 215.039 510.908 215.111 C 511.183 215.246 511.331 215.521 511.347 215.94 L 511.406 217.181 C 511.422 217.484 511.438 217.675 511.462 217.787 C 511.498 217.907 511.518 218.002 511.562 218.082 L 511.618 218.178 L 513.113 218.178 L 513.113 217.723 L 513.014 217.675 L 513.014 217.675 Z  M 511.463 212.682 C 511.463 213.116 511.351 213.404 511.136 213.563 C 510.888 213.727 510.545 213.818 510.115 213.818 L 507.957 213.818 L 507.957 211.625 L 510.246 211.625 C 510.553 211.625 510.809 211.668 510.992 211.756 C 511.311 211.916 511.463 212.227 511.463 212.681" fill="rgb(255,255,255)"/><path d=" M 560.644 181.31 C 560.739 186.576 560.48 189.352 558.713 192 C 557.149 194.314 554.062 196.44 547.233 196.44 L 538.761 196.176 C 537.429 196.192 533.955 196.591 532.32 198.358 C 530.908 199.858 530.816 200.999 530.66 205.039 L 530.66 216.854 L 559.467 216.854 L 559.467 222.661 L 527.98 222.661 L 526.476 222.642 C 524.334 222.642 522.228 221.19 522.228 218.286 L 522.228 209.471 C 522.372 199.153 523.118 197.669 525.355 194.972 C 526.907 193.11 530.541 191.016 534.976 190.792 C 535.846 190.744 537.493 190.633 539.775 190.716 C 541.466 190.772 543.129 190.816 543.871 190.824 C 547.792 190.872 549.224 190.15 550.297 188.742 C 551.521 187.154 552.167 185.292 552.167 182.232 C 552.167 179.38 551.593 176.66 550.5 175.407 C 549.172 173.964 547.916 172.994 544.222 172.986 C 534.92 172.961 524.043 173.202 524.043 173.202 L 524.043 167.737 C 524.043 167.737 534.669 167.275 545.51 167.115 C 552.263 167.011 555.969 168.794 557.863 171.259 C 559.85 173.844 560.564 176.273 560.643 181.311" fill="rgb(255,255,255)"/></g></svg>
